X:1
T:Rimsky-Korsakov Harmonic Exercises,
T:Polytonic progressions (2)
T:Rimsky-Korsakov Harmonic Exercises, Polytonic progressions (2)
T:"Practical Manual of Harmony" (1885)
T:Additional examples from editors of "Practical Manual of Harmony" Maksimilian Steinberg and Jāzeps Vītols: 
T:Polytonic progressions of triads
%%score { ( 1 2 ) | ( 3 4 ) }
L:1/8
Q:1/2=80
M:4/1
K:C
V:1 treble nm="Piano" snm="Pno."
V:2 treble 
V:3 bass 
V:4 bass 
V:1
"^You can connect major or minor triads that are\ndistant from each other by a major or minor third.\n" (c8 c8"^F♭ = E" _c4- B4 !breath!=c8) |] %1
 (c8"^a♭ = g♯" _c4- =B4 B8 !breath!=c8) |][M:5/1] (c8 ^c8"^F♯ = G♭" ^c4- _d4 _e8 !breath!=e8) |] %3
 (c8 c8 ^c8"^d♯ = e♭" ^d4- _e4 !breath!_e8) |] %4
[M:4/1]"^Exercise: write similar progressions in an upward movement.\nRealization by S. Shchetnikov:\n" (c8 B8"^G♯ = A♭" ^B4- c4 !breath!c8) |] %5
 (c8 B8"^g♯ = a♭" B4- _c4 !breath!=c8) |][M:5/1] (c8 _B8"^G♭ = F♯" _B4- ^A4 =A8 !breath!=G8) |] %7
 (c8"^e♭ = d♯" _B4- ^A4 =A8 A8 !breath!=G8) |] %8
[M:6/1][Q:1/2=120] (([ceg]8 [_c_e_a]8) ([^G^B^d]8 [=G=B=e]8) ([E^GB]8 !breath![_E=G=c]8)) |] %9
 (([C_EG]8 [B,=E^G]8) ([E=GB]8 [^D^G^B]8) ([_Ac_e]8 [=Gc=e]8)) |] %10
V:2
 (G8 _A8 _A4- ^G4 =G8) |] (G8 _A4- ^G4 =G8 G8) |][M:5/1] (G8 A8 ^A4- _B4 _B8 =c8) |] %3
 (G8 A8 A8 ^A4- _B4 =c8) |][M:4/1] (G8 ^G8 ^G4- _A4 =G8) |] (G8 G8 ^G4- _A4 =G8) |] %6
[M:5/1] (G8 G8 _G4- ^F4 =E8 E8) |] (G8 _G4- ^F4 F8 E8 _E8) |][M:6/1] x48 |] x48 |] %10
V:3
 (E8 _E8 _F4- =E4 E8) |] (_E8 _E4- ^D4 =E8 _E8) |][M:5/1] (E8 E8 ^F4- _G4 =G8 G8) |] %3
 (_E8 =E8 ^F8 ^F4- _G4 =G8) |][M:4/1] (E8 E8 ^D4 _E4 =E8) |] (_E8 =E8 ^D4- _E4 _E8) |] %6
[M:5/1] (E8 _E8 _D4- ^C4 ^C8 =C8) |] (_E8 _E4- ^D4 ^C8 =C8 C8) |][M:6/1] z48 |] z48 |] %10
V:4
 (C8 _A,8 _F,4- =E,4 C,8) |] (C8 _A,4- ^G,4 =E,8 C,8) |][M:5/1] (C8 A,8 ^F,4- _G,4 _E,8 =C,8) |] %3
 (C8 A,8 ^F,8 ^D,4- _E,4 =C,8) |][M:4/1] (C,8 E,8 ^G,4- _A,4 C8) |] (C,8 =E,8 ^G,4- _A,4 C8) |] %6
[M:5/1] (C,8 _E,8 _G,4- ^F,4 A,8 =C8) |] (C,8 _E,4- ^D,4 ^F,8 A,8 C8) |][M:6/1] z48 |] x48 |] %10

